X:1
T:Snug in the Blanket (Reel)
M:4/4
L:1/8
F:http://blackrosetheband.googlepages.com/ABCTUNES.ABC May 2009
S:Source: The Angus Sessions Podcast
R:reel
K:G
|:\
"D"A2B2 c2Bc | AddB cBAG |\
"G"GFG B2A G2 | GFG A2 cBc |\
"D"A2B2 c2Bc |
AddB cBAG |\
"G"BddB cBAG | GB2A G4 ::\
"D"F3G AFD2 | ADBA AFD2 |
F3G AFD2 | "C"E2F2 GEC2 |\
"D"F3G AFD2 | ADBA AFD2 |\
"G"BddB cBAG | GB2A G4 :|
